packages/core/src/svgs/tokens/branded/SWAP.svg

<svg width="24" height="24" viewBox="0 0 24 24" fill="none" xmlns="http://www.w3.org/2000/svg">
<path d="M7.00005 9.35147V10.5L10.5001 7.99997L7.00005 5.74994V6.77245C4.19653 7.02495 2 9.38098 2 12.25C2 15.2875 4.46253 17.75 7.50006 17.75C8.75957 17.75 10.5001 17.307 11.5001 16.25C12.7501 14.8071 14.2401 11.173 14.2401 11.173L9.77659 14.066C9.47569 14.4051 9.09886 14.6683 8.67685 14.8341C8.25483 14.9999 7.7996 15.0634 7.34833 15.0196C6.89706 14.9759 6.46253 14.826 6.08025 14.5822C5.69795 14.3385 5.37871 14.0078 5.14862 13.6172C4.91853 13.2264 4.78408 12.787 4.75626 12.3344C4.72846 11.8818 4.80808 11.4292 4.98861 11.0133C5.16914 10.5973 5.44548 10.2301 5.79505 9.94131C6.14462 9.65267 6.55753 9.45014 7.00005 9.35147Z" fill="url(#paint0_linear_364_13878)"/>
<path d="M16.9999 14.6486V13.5001L13.4999 16L16.9999 18.2501V17.2276C19.8029 16.9752 22 14.619 22 11.7501C22 8.71253 19.5375 6.25 16.4999 6.25C15.2404 6.25 13.4999 6.69301 12.4998 7.75002C11.2498 9.19304 9.75977 12.827 9.75977 12.827L14.2234 9.93448C14.5242 9.59533 14.9011 9.33219 15.3231 9.16645C15.7451 9.00071 16.2003 8.93713 16.6516 8.9809C17.1028 9.02467 17.5374 9.17455 17.9197 9.41835C18.3019 9.66207 18.6213 9.9927 18.8513 10.3834C19.0814 10.774 19.2158 11.2136 19.2437 11.6662C19.2715 12.1187 19.1919 12.5714 19.0113 12.9873C18.8308 13.4031 18.5544 13.7705 18.2049 14.0593C17.8553 14.3479 17.4425 14.5499 16.9999 14.6486Z" fill="url(#paint1_linear_364_13878)"/>
<defs>
<linearGradient id="paint0_linear_364_13878" x1="4.451" y1="7.8333" x2="10.227" y2="20.7767" gradientUnits="userSpaceOnUse">
<stop stop-color="#0076EF"/>
<stop offset="0.13" stop-color="#007FF6"/>
<stop offset="0.258" stop-color="#0084F6"/>
<stop offset="0.376" stop-color="#008BF9"/>
<stop offset="0.492" stop-color="#009DF9"/>
<stop offset="0.612" stop-color="#00AEF9"/>
<stop offset="0.731" stop-color="#00B9FA"/>
<stop offset="0.829" stop-color="#00C5FB"/>
<stop offset="1" stop-color="#00CCFC"/>
</linearGradient>
<linearGradient id="paint1_linear_364_13878" x1="20.7403" y1="16.2503" x2="13.7402" y2="6.25016" gradientUnits="userSpaceOnUse">
<stop stop-color="#0076EF"/>
<stop offset="0.13" stop-color="#007FF6"/>
<stop offset="0.258" stop-color="#0084F6"/>
<stop offset="0.376" stop-color="#008BF9"/>
<stop offset="0.492" stop-color="#009DF9"/>
<stop offset="0.612" stop-color="#00AEF9"/>
<stop offset="0.731" stop-color="#00B9FA"/>
<stop offset="0.829" stop-color="#00C5FB"/>
<stop offset="1" stop-color="#00CCFC"/>
</linearGradient>
</defs>
</svg>

<svg xmlns="http://www.w3.org/2000/svg" width="24" height="24" fill="none" viewBox="0 0 24 24">
    <path fill="url(#SWAP__a)" d="M7 9.351V10.5L10.5 8 7 5.75v1.022a5.5 5.5 0 0 0 .5 10.978c1.26 0 3-.443 4-1.5 1.25-1.443 2.74-5.077 2.74-5.077l-4.463 2.893a2.877 2.877 0 0 1-5.02-1.732A2.875 2.875 0 0 1 7 9.351"/>
    <path fill="url(#SWAP__b)" d="M17 14.649V13.5L13.5 16l3.5 2.25v-1.022a5.5 5.5 0 0 0-.5-10.978c-1.26 0-3 .443-4 1.5-1.25 1.443-2.74 5.077-2.74 5.077l4.463-2.893A2.874 2.874 0 1 1 17 14.65"/>
    <defs>
        <linearGradient id="SWAP__a" x1="4.451" x2="10.227" y1="7.833" y2="20.777" gradientUnits="userSpaceOnUse">
            <stop stop-color="#0076EF"/>
            <stop offset=".13" stop-color="#007FF6"/>
            <stop offset=".258" stop-color="#0084F6"/>
            <stop offset=".376" stop-color="#008BF9"/>
            <stop offset=".492" stop-color="#009DF9"/>
            <stop offset=".612" stop-color="#00AEF9"/>
            <stop offset=".731" stop-color="#00B9FA"/>
            <stop offset=".829" stop-color="#00C5FB"/>
            <stop offset="1" stop-color="#00CCFC"/>
        </linearGradient>
        <linearGradient id="SWAP__b" x1="20.74" x2="13.74" y1="16.25" y2="6.25" gradientUnits="userSpaceOnUse">
            <stop stop-color="#0076EF"/>
            <stop offset=".13" stop-color="#007FF6"/>
            <stop offset=".258" stop-color="#0084F6"/>
            <stop offset=".376" stop-color="#008BF9"/>
            <stop offset=".492" stop-color="#009DF9"/>
            <stop offset=".612" stop-color="#00AEF9"/>
            <stop offset=".731" stop-color="#00B9FA"/>
            <stop offset=".829" stop-color="#00C5FB"/>
            <stop offset="1" stop-color="#00CCFC"/>
        </linearGradient>
    </defs>
</svg>
